X: 1
T: Cape North, The
M: 6/8
L: 1/8
R: jig
K: Gdor
|: g2 f | 
d2 G GAB | dcB ABc | d2 G GAG | AGF AA/B/c |
d2 G G2 B | dcB A2 c | def cAF |1 G2 B :|2 G3- G2 ||
|: A | 
F2 f f2 g | fed f2 c | A2 B c2 d | cAB cAF |
def g2 b | af/g/a g2 e | f2 d cAF |1 G3 G2 :|2 G3 ||
